packages/radix-icons/twoTone/15/rename.svg

<svg width="15" height="15" fill="none" xmlns="http://www.w3.org/2000/svg">
  <path
    fill-rule="evenodd"
    clip-rule="evenodd"
    d="M4.5 0.5C3.94772 0.5 3.5 0.947715 3.5 1.5C3.5 2.05228 3.94772 2.5 4.5 2.5C5.34431 2.5 5.82979 2.71109 6.0915 2.94008C6.33572 3.15377 6.5 3.48252 6.5 4V6.5H5.75C5.19772 6.5 4.75 6.94772 4.75 7.5C4.75 8.05228 5.19772 8.5 5.75 8.5H6.5V11C6.5 11.5175 6.33572 11.8462 6.0915 12.0599C5.82979 12.2889 5.34431 12.5 4.5 12.5C3.94772 12.5 3.5 12.9477 3.5 13.5C3.5 14.0523 3.94772 14.5 4.5 14.5C5.65569 14.5 6.67021 14.2111 7.4085 13.5651C7.43972 13.5378 7.47021 13.51 7.5 13.4818C7.52979 13.51 7.56028 13.5378 7.5915 13.5651C8.32979 14.2111 9.34431 14.5 10.5 14.5C11.0523 14.5 11.5 14.0523 11.5 13.5C11.5 12.9477 11.0523 12.5 10.5 12.5C9.65569 12.5 9.17021 12.2889 8.9085 12.0599C8.66428 11.8462 8.5 11.5175 8.5 11V8.5H9.25C9.80228 8.5 10.25 8.05228 10.25 7.5C10.25 6.94772 9.80228 6.5 9.25 6.5H8.5V4C8.5 3.48252 8.66428 3.15377 8.9085 2.94008C9.17021 2.71109 9.65569 2.5 10.5 2.5C11.0523 2.5 11.5 2.05228 11.5 1.5C11.5 0.947715 11.0523 0.5 10.5 0.5C9.34431 0.5 8.32979 0.788912 7.5915 1.43492C7.56028 1.46223 7.52979 1.48999 7.5 1.51817C7.47021 1.48999 7.43972 1.46223 7.4085 1.43492C6.67021 0.788912 5.65569 0.5 4.5 0.5Z"
    fill="currentColor"
    opacity=".2"
  />
  <path
    fill-rule="evenodd"
    clip-rule="evenodd"
    d="M4.5 1C4.22386 1 4 1.22386 4 1.5C4 1.77614 4.22386 2 4.5 2C5.42215 2 6.0399 2.23054 6.42075 2.56379C6.79286 2.88939 7 3.36626 7 4V7H5.75C5.47386 7 5.25 7.22386 5.25 7.5C5.25 7.77614 5.47386 8 5.75 8H7V11C7 11.6337 6.79286 12.1106 6.42075 12.4362C6.0399 12.7695 5.42215 13 4.5 13C4.22386 13 4 13.2239 4 13.5C4 13.7761 4.22386 14 4.5 14C5.57785 14 6.4601 13.7305 7.07925 13.1888C7.24168 13.0467 7.38169 12.8896 7.5 12.7198C7.61832 12.8896 7.75832 13.0467 7.92075 13.1888C8.5399 13.7305 9.42215 14 10.5 14C10.7761 14 11 13.7761 11 13.5C11 13.2239 10.7761 13 10.5 13C9.57785 13 8.9601 12.7695 8.57925 12.4362C8.20714 12.1106 8 11.6337 8 11V8H9.25C9.52614 8 9.75 7.77614 9.75 7.5C9.75 7.22386 9.52614 7 9.25 7H8V4C8 3.36626 8.20714 2.88939 8.57925 2.56379C8.9601 2.23054 9.57785 2 10.5 2C10.7761 2 11 1.77614 11 1.5C11 1.22386 10.7761 1 10.5 1C9.42215 1 8.5399 1.26946 7.92075 1.81121C7.75832 1.95333 7.61832 2.11043 7.5 2.28023C7.38168 2.11043 7.24168 1.95333 7.07925 1.81121C6.4601 1.26946 5.57785 1 4.5 1Z"
    fill="currentColor"
  />
</svg>

<svg width="15" height="15" fill="none" xmlns="http://www.w3.org/2000/svg">
  <path
    fill-rule="evenodd"
    clip-rule="evenodd"
    d="M4.5.5a1 1 0 000 2c.844 0 1.33.211 1.591.44.245.214.409.543.409 1.06v2.5h-.75a1 1 0 000 2h.75V11c0 .518-.164.846-.409 1.06-.261.229-.747.44-1.591.44a1 1 0 100 2c1.156 0 2.17-.289 2.909-.935l.091-.083.091.083c.739.646 1.753.935 2.909.935a1 1 0 100-2c-.844 0-1.33-.211-1.591-.44-.245-.214-.409-.543-.409-1.06V8.5h.75a1 1 0 000-2H8.5V4c0-.517.164-.846.409-1.06.261-.229.747-.44 1.591-.44a1 1 0 100-2c-1.156 0-2.17.289-2.909.935a3.177 3.177 0 00-.091.083 3.177 3.177 0 00-.091-.083C6.67.789 5.655.5 4.5.5z"
    fill="currentColor"
    opacity=".2"
  />
  <path
    fill-rule="evenodd"
    clip-rule="evenodd"
    d="M4.5 1a.5.5 0 000 1c.922 0 1.54.23 1.92.564.373.325.58.802.58 1.436v3H5.75a.5.5 0 000 1H7v3c0 .634-.207 1.11-.58 1.436-.38.334-.998.564-1.92.564a.5.5 0 000 1c1.078 0 1.96-.27 2.58-.811.162-.142.302-.3.42-.47.118.17.258.328.42.47.62.541 1.502.811 2.58.811a.5.5 0 000-1c-.922 0-1.54-.23-1.92-.564C8.206 12.111 8 11.634 8 11V8h1.25a.5.5 0 000-1H8V4c0-.634.207-1.11.58-1.436C8.96 2.23 9.577 2 10.5 2a.5.5 0 000-1c-1.078 0-1.96.27-2.58.811-.162.142-.302.3-.42.47a2.588 2.588 0 00-.42-.47C6.46 1.27 5.577 1 4.5 1z"
    fill="currentColor"
  />
</svg>
